X: 201
T: Come Under My Plaidie
M: 6/8
L: 1/8
Q:1/4=210
K:G % 1 sharps
% (c) SSF July 2006
g|
"G"dBB BAG|"G"dBB B2g|"G"dBB "Bm"BAB|"Em"GEE E2g|\
"G"dBB BAG|"G"dBB BAG|"Am"ABc "Bm"BAB|"Em"GEE E2:||\
d|
"G"gfg "D"aga|"Em"bge dBd|"G"gfg "D"aga|"Em"bge e2g/2a/2|
"G"bgb "D"afa|"Em"gef gfe|"G"dBB "Gm"BAB|"Em"GEE E2:||

%  <A name="D1X202"></A>
